icons/fill-new-office-doc-file-format-gif.svg

<svg xmlns="http://www.w3.org/2000/svg" width="32px" height="32px" viewBox="0 0 32 32" version="1.1">
    <title>fill-new-office-doc-file-format-gif</title>
    <g id="fill-new-office-doc-file-format-gif" stroke-width="1" fill-rule="evenodd">
        <path d="M28,25 L28,29 C28,29.5522847 27.5522847,30 27,30 L5,30 C4.44771525,30 4,29.5522847 4,29 L4,25 L28,25 Z M29,10 C29.5522847,10 30,10.4477153 30,11 L30,22 C30,22.5522847 29.5522847,23 29,23 L3,23 C2.44771525,23 2,22.5522847 2,22 L2,11 C2,10.4477153 2.44771525,10 3,10 L29,10 Z M11,12.5 L6.6,12.5 C5.99248678,12.5 5.5,12.9924868 5.5,13.6 L5.5,19.4 C5.5,20.0075132 5.99248678,20.5 6.6,20.5 L10.4,20.5 C11.0075132,20.5 11.5,20.0075132 11.5,19.4 L11.5,16.6 C11.5,15.9924868 11.0075132,15.5 10.4,15.5 L8.5,15.5 L8.5,17.5 L9.5,17.5 L9.5,18.5 L7.5,18.5 L7.5,14.5 L11,14.5 L11,12.5 Z M18.5,12.5 L13.5,12.5 L13.5,14.5 L15,14.5 L15,18.5 L13.5,18.5 L13.5,20.5 L18.5,20.5 L18.5,18.5 L17,18.5 L17,14.5 L18.5,14.5 L18.5,12.5 Z M26.5,12.5 L20.5,12.5 L20.5,20.5 L22.5,20.5 L22.5,18 L26,18 L26,16 L22.5,16 L22.5,14.5 L26.5,14.5 L26.5,12.5 Z M20.0857864,2 C20.3510029,2 20.6053568,2.10535684 20.7928932,2.29289322 L26.5,8 L4,8 L4,3 C4,2.48716416 4.38604019,2.06449284 4.88337887,2.00672773 L5,2 L20.0857864,2 Z" id="&#24418;&#29366;" />
    </g>
</svg>

<svg xmlns="http://www.w3.org/2000/svg" viewBox="0 0 32 32"><path fill="currentColor" d="M28 25v4a1 1 0 0 1-1 1H5a1 1 0 0 1-1-1v-4zm1-15a1 1 0 0 1 1 1v11a1 1 0 0 1-1 1H3a1 1 0 0 1-1-1V11a1 1 0 0 1 1-1zm-18 2.5H6.6a1.1 1.1 0 0 0-1.1 1.1v5.8a1.1 1.1 0 0 0 1.1 1.1h3.8a1.1 1.1 0 0 0 1.1-1.1v-2.8a1.1 1.1 0 0 0-1.1-1.1H8.5v2h1v1h-2v-4H11zm7.5 0h-5v2H15v4h-1.5v2h5v-2H17v-4h1.5zm8 0h-6v8h2V18H26v-2h-3.5v-1.5h4zM20.086 2a1 1 0 0 1 .707.293L26.5 8H4V3a1 1 0 0 1 .883-.993L5 2z"/></svg>
